X: 33039
T: Pride Of Petravore, The
R: hornpipe
M: 4/4
K: Eminor
B,2|:E3 F G3 A|BcBA GEE2|D3 E F3 G|ABAG FE D2|
E3 F G3 A|BcBA GEGA|B2Bc BAGF|E2 (3EEE E2B,2:|
|:e2 e2 e2 e2|dBGA B2Bc|BAFG A2 AB|AGED E2 Bd|
e^def g3e|dBGA B2 GA|B2Bc BAGF|1 E2(3EEE E2Bd:|2 "*"E2E2E2||
P:*Variant - Leave out 1st part's initial pickup note
E2B,2C2B,2|

